; generated by PrusaSlicer 2.6.0+win64 on 2023-07-31 at 19:07:00 UTC


;
;

;
;
; 

; external perimeters extrusion width = 0.45mm
; perimeters extrusion width = 0.45mm
; infill extrusion width = 0.45mm
; solid infill extrusion width = 0.45mm
; top infill extrusion width = 0.40mm
; support material extrusion width = 0.35mm
; first layer extrusion width = 0.42mm

M73 P0 R90
M201 X2500 Y2500 Z400 E5000 ; sets maximum accelerations, mm/sec^2
M203 X180 Y180 Z12 E80 ; sets maximum feedrates, mm / sec
M204 P2000 R1250 T2500 ; sets acceleration (P, T) and retract acceleration (R), mm/sec^2
M205 X8.00 Y8.00 Z2.00 E10.00 ; sets the jerk limits, mm/sec
M205 S0 T0 ; sets the minimum extruding and travel feed rate, mm/sec
;TYPE:Custom
M862.3 P "MINI" ; printer model check
G90 ; use absolute coordinates
M83 ; extruder relative mode
M104 S170 ; set extruder temp for bed leveling
M140 S85 ; set bed temp
M109 R170 ; wait for bed leveling temp
M190 S85 ; wait for bed temp
M204 T1250 ; set travel acceleration
G28 ; home all without mesh bed level
G29 ; mesh bed leveling 
M204 T2500 ; restore travel acceleration
M104 S230 ; set extruder temp
G92 E0
G1 Y-2 X179 F2400
G1 Z3 F720
M109 S230 ; wait for extruder temp

; intro line
G1 X170 F1000
G1 Z0.2 F720
G1 X110 E8 F900
G1 X40 E10 F700
G92 E0

M221 S95 ; set flow
G21 ; set units to millimeters
G90 ; use absolute coordinates
M83 ; use relative distances for extrusion
M900 K0.2 ; Filament gcode
M107
;LAYER_CHANGE
;Z:0.2
;HEIGHT:0.2
;BEFORE_LAYER_CHANGE
G92 E0.0
;0.2


G1 E-3.2 F2700
G1 Z.2 F720
;AFTER_LAYER_CHANGE
;0.2
G1 Z.4
G1 X37.616 Y60.556 F9000
G1 Z.2 F720
G1 E3.2 F1500
M204 P600
;TYPE:Skirt/Brim
;WIDTH:0.42
G1 F1200
G1 X38.44 Y60.366 E.02651
G1 X81.849 Y58.236 E1.3627
G1 X104.174 Y58.233 E.69998
M73 P0 R89
G1 X105.493 Y58.632 E.04321
G1 X112.478 Y63.289 E.26322
G1 X113.349 Y64.34 E.0428
G1 X113.537 Y65.267 E.02966
G1 X113.537 Y106.103 E1.28038
G1 X112.841 Y107.784 E.05705
G1 X108.183 Y112.441 E.20652
G1 X106.503 Y113.138 E.05703
G1 X79.381 Y113.124 E.85039
G1 X38.3 Y108.665 E1.29563
G1 X37.042 Y108.135 E.0428
G1 X36.284 Y107 E.04279
G1 X36.179 Y106.302 E.02213
G1 X36.179 Y62.74 E1.36586
G1 X36.571 Y61.433 E.04278
G1 X37.57 Y60.595 E.04088
M204 P1000
; printing object Mighty Lappi-Densor (5).stl id:0 copy 0
G1 E-2.24 F2700
;WIPE_START
G1 F7200
G1 X38.44 Y60.366 E-.32049
G1 X40.233 Y60.278 E-.63951
;WIPE_END
G1 Z.4 F720
G1 X76.769 Y105.732 F9000
G1 Z.2 F720
G1 E3.2 F1500
M204 P600
;TYPE:Support material
G1 F1200
G1 X77.05 Y106.013 E.01246
G1 X77.519 Y106.013 E.01471
G1 X77.519 Y106.103 E.00282
G1 X72.652 Y106.103 E.1526
G1 X72.652 Y65.267 E1.28038
G1 X76.769 Y65.267 E.12909
G1 X76.769 Y105.675 E1.26696
M204 P1000
G1 X76.21 Y105.934 F9000
M204 P600
G1 F1200
G1 X76.21 Y65.606 E1.26446
G1 X75.791 Y65.606 E.01314
G1 X75.791 Y105.764 E1.25913
G1 X75.372 Y105.764 E.01314
G1 X75.372 Y65.606 E1.25913
G1 X74.953 Y65.606 E.01314
G1 X74.953 Y105.764 E1.25913
G1 X74.534 Y105.764 E.01314
G1 X74.534 Y65.606 E1.25913
G1 X74.115 Y65.606 E.01314
G1 X74.115 Y105.764 E1.25913
G1 X73.696 Y105.764 E.01314
G1 X73.696 Y65.606 E1.25913
G1 X73.277 Y65.606 E.01314
G1 X73.277 Y105.934 E1.26446
M204 P1000
G1 E-2.24 F2700
;WIPE_START
G1 F7200
G1 X73.277 Y103.239 E-.96
;WIPE_END
G1 Z.4 F720
G1 X106.503 Y110.76 F9000
G1 Z.2 F720
G1 E3.2 F1500
M204 P600
G1 F1200
G1 X79.637 Y110.76 E.84236
G1 X79.637 Y106.013 E.14884
G1 X106.503 Y106.013 E.84236
G1 X106.503 Y110.704 E.14708
M204 P1000
G1 X105.958 Y110.591 F9000
M204 P600
M73 P1 R89
G1 F1200
G1 X105.958 Y106.352 E.13291
G1 X105.539 Y106.352 E.01314
G1 X105.539 Y110.421 E.12758
G1 X105.12 Y110.421 E.01314
G1 X105.12 Y106.352 E.12758
G1 X104.701 Y106.352 E.01314
G1 X104.701 Y110.421 E.12758
G1 X104.282 Y110.421 E.01314
G1 X104.282 Y106.352 E.12758
G1 X103.863 Y106.352 E.01314
G1 X103.863 Y110.421 E.12758
G1 X103.444 Y110.421 E.01314
G1 X103.444 Y106.352 E.12758
G1 X103.025 Y106.352 E.01314
G1 X103.025 Y110.421 E.12758
G1 X102.606 Y110.421 E.01314
G1 X102.606 Y106.352 E.12758
G1 X102.187 Y106.352 E.01314
G1 X102.187 Y110.421 E.12758
G1 X101.768 Y110.421 E.01314
G1 X101.768 Y106.352 E.12758
G1 X101.349 Y106.352 E.01314
G1 X101.349 Y110.421 E.12758
G1 X100.93 Y110.421 E.01314
G1 X100.93 Y106.352 E.12758
G1 X100.511 Y106.352 E.01314
G1 X100.511 Y110.421 E.12758
G1 X100.092 Y110.421 E.01314
G1 X100.092 Y106.352 E.12758
G1 X99.673 Y106.352 E.01314
G1 X99.673 Y110.421 E.12758
G1 X99.254 Y110.421 E.01314
G1 X99.254 Y106.352 E.12758
G1 X98.835 Y106.352 E.01314
G1 X98.835 Y110.421 E.12758
G1 X98.416 Y110.421 E.01314
G1 X98.416 Y106.352 E.12758
G1 X97.997 Y106.352 E.01314
G1 X97.997 Y110.421 E.12758
G1 X97.578 Y110.421 E.01314
G1 X97.578 Y106.352 E.12758
G1 X97.159 Y106.352 E.01314
G1 X97.159 Y110.421 E.12758
G1 X96.74 Y110.421 E.01314
G1 X96.74 Y106.352 E.12758
G1 X96.321 Y106.352 E.01314
G1 X96.321 Y110.421 E.12758
G1 X95.902 Y110.421 E.01314
G1 X95.902 Y106.352 E.12758
G1 X95.483 Y106.352 E.01314
G1 X95.483 Y110.421 E.12758
G1 X95.064 Y110.421 E.01314
G1 X95.064 Y106.352 E.12758
G1 X94.645 Y106.352 E.01314
G1 X94.645 Y110.421 E.12758
G1 X94.226 Y110.421 E.01314
G1 X94.226 Y106.352 E.12758
G1 X93.807 Y106.352 E.01314
G1 X93.807 Y110.421 E.12758
G1 X93.388 Y110.421 E.01314
G1 X93.388 Y106.352 E.12758
G1 X92.969 Y106.352 E.01314
G1 X92.969 Y110.421 E.12758
G1 X92.55 Y110.421 E.01314
G1 X92.55 Y106.352 E.12758
G1 X92.131 Y106.352 E.01314
G1 X92.131 Y110.421 E.12758
G1 X91.712 Y110.421 E.01314
G1 X91.712 Y106.352 E.12758
G1 X91.293 Y106.352 E.01314
G1 X91.293 Y110.421 E.12758
G1 X90.874 Y110.421 E.01314
G1 X90.874 Y106.352 E.12758
G1 X90.456 Y106.352 E.01311
G1 X90.456 Y110.421 E.12758
G1 X90.037 Y110.421 E.01314
G1 X90.037 Y106.352 E.12758
G1 X89.618 Y106.352 E.01314
G1 X89.618 Y110.421 E.12758
G1 X89.199 Y110.421 E.01314
G1 X89.199 Y106.352 E.12758
G1 X88.78 Y106.352 E.01314
G1 X88.78 Y110.421 E.12758
G1 X88.361 Y110.421 E.01314
G1 X88.361 Y106.352 E.12758
G1 X87.942 Y106.352 E.01314
G1 X87.942 Y110.421 E.12758
G1 X87.523 Y110.421 E.01314
G1 X87.523 Y106.352 E.12758
G1 X87.104 Y106.352 E.01314
G1 X87.104 Y110.421 E.12758
G1 X86.685 Y110.421 E.01314
G1 X86.685 Y106.352 E.12758
G1 X86.266 Y106.352 E.01314
G1 X86.266 Y110.421 E.12758
G1 X85.847 Y110.421 E.01314
G1 X85.847 Y106.352 E.12758
G1 X85.428 Y106.352 E.01314
G1 X85.428 Y110.421 E.12758
G1 X85.009 Y110.421 E.01314
G1 X85.009 Y106.352 E.12758
G1 X84.59 Y106.352 E.01314
G1 X84.59 Y110.421 E.12758
G1 X84.171 Y110.421 E.01314
G1 X84.171 Y106.352 E.12758
G1 X83.752 Y106.352 E.01314
G1 X83.752 Y110.421 E.12758
G1 X83.333 Y110.421 E.01314
G1 X83.333 Y106.352 E.12758
G1 X82.914 Y106.352 E.01314
G1 X82.914 Y110.421 E.12758
G1 X82.495 Y110.421 E.01314
G1 X82.495 Y106.352 E.12758
G1 X82.076 Y106.352 E.01314
G1 X82.076 Y110.421 E.12758
G1 X81.657 Y110.421 E.01314
G1 X81.657 Y106.352 E.12758
G1 X81.238 Y106.352 E.01314
G1 X81.238 Y110.421 E.12758
G1 X80.819 Y110.421 E.01314
G1 X80.819 Y106.352 E.12758
G1 X80.4 Y106.352 E.01314
G1 X80.4 Y110.421 E.12758
G1 X79.981 Y110.421 E.01314
G1 X79.981 Y106.183 E.13288
M204 P1000
G1 E-2.24 F2700
;WIPE_START
G1 F7200
G1 X79.981 Y108.878 E-.96
;WIPE_END
G1 Z.4 F720
G1 X111.16 Y106.103 F9000
G1 Z.2 F720
G1 E3.2 F1500
M204 P600
G1 F1200
G1 X107.729 Y106.103 E.10758
G1 X107.729 Y106.013 E.00282
G1 X108.198 Y106.013 E.01471
G1 X108.479 Y105.732 E.01246
G1 X108.479 Y65.267 E1.26875
G1 X111.16 Y65.267 E.08406
G1 X111.16 Y106.047 E1.27863
M204 P1000
G1 X110.566 Y105.934 F9000
M204 P600
G1 F1200
G1 X110.566 Y65.606 E1.26446
G1 X110.147 Y65.606 E.01314
G1 X110.147 Y105.764 E1.25913
G1 X109.728 Y105.764 E.01314
M73 P1 R88
G1 X109.728 Y65.606 E1.25913
G1 X109.309 Y65.606 E.01314
G1 X109.309 Y105.764 E1.25913
G1 X108.89 Y105.764 E.01314
G1 X108.89 Y65.437 E1.26442
M204 P1000
G1 E-2.24 F2700
;WIPE_START
G1 F7200
G1 X108.89 Y68.132 E-.96
;WIPE_END
G1 Z.4 F720
G1 X104.174 Y64.054 F9000
G1 Z.2 F720
G1 E3.2 F1500
M204 P600
G1 F1200
G1 X81.966 Y64.054 E.69632
G1 X81.966 Y60.61 E.10798
G1 X104.174 Y60.61 E.69632
G1 X104.174 Y63.997 E.1062
M204 P1000
G1 X103.444 Y63.884 F9000
M204 P600
G1 F1200
G1 X103.444 Y60.949 E.09202
G1 X103.025 Y60.949 E.01314
G1 X103.025 Y63.714 E.08669
G1 X102.606 Y63.714 E.01314
G1 X102.606 Y60.949 E.08669
G1 X102.187 Y60.949 E.01314
G1 X102.187 Y63.714 E.08669
G1 X101.768 Y63.714 E.01314
G1 X101.768 Y60.949 E.08669
G1 X101.349 Y60.949 E.01314
G1 X101.349 Y63.714 E.08669
G1 X100.93 Y63.714 E.01314
G1 X100.93 Y60.949 E.08669
G1 X100.511 Y60.949 E.01314
G1 X100.511 Y63.714 E.08669
G1 X100.092 Y63.714 E.01314
G1 X100.092 Y60.949 E.08669
G1 X99.673 Y60.949 E.01314
G1 X99.673 Y63.714 E.08669
G1 X99.254 Y63.714 E.01314
G1 X99.254 Y60.949 E.08669
G1 X98.835 Y60.949 E.01314
G1 X98.835 Y63.714 E.08669
G1 X98.416 Y63.714 E.01314
G1 X98.416 Y60.949 E.08669
G1 X97.997 Y60.949 E.01314
G1 X97.997 Y63.714 E.08669
G1 X97.578 Y63.714 E.01314
G1 X97.578 Y60.949 E.08669
G1 X97.159 Y60.949 E.01314
G1 X97.159 Y63.714 E.08669
G1 X96.74 Y63.714 E.01314
G1 X96.74 Y60.949 E.08669
G1 X96.321 Y60.949 E.01314
G1 X96.321 Y63.714 E.08669
G1 X95.902 Y63.714 E.01314
G1 X95.902 Y60.949 E.08669
G1 X95.483 Y60.949 E.01314
G1 X95.483 Y63.714 E.08669
G1 X95.064 Y63.714 E.01314
G1 X95.064 Y60.949 E.08669
G1 X94.645 Y60.949 E.01314
G1 X94.645 Y63.714 E.08669
G1 X94.226 Y63.714 E.01314
G1 X94.226 Y60.949 E.08669
G1 X93.807 Y60.949 E.01314
G1 X93.807 Y63.714 E.08669
G1 X93.388 Y63.714 E.01314
G1 X93.388 Y60.949 E.08669
G1 X92.969 Y60.949 E.01314
G1 X92.969 Y63.714 E.08669
G1 X92.55 Y63.714 E.01314
G1 X92.55 Y60.949 E.08669
G1 X92.131 Y60.949 E.01314
G1 X92.131 Y63.714 E.08669
G1 X91.712 Y63.714 E.01314
G1 X91.712 Y60.949 E.08669
G1 X91.293 Y60.949 E.01314
G1 X91.293 Y63.714 E.08669
G1 X90.874 Y63.714 E.01314
G1 X90.874 Y60.949 E.08669
G1 X90.456 Y60.949 E.01311
G1 X90.456 Y63.714 E.08669
G1 X90.037 Y63.714 E.01314
G1 X90.037 Y60.949 E.08669
G1 X89.618 Y60.949 E.01314
G1 X89.618 Y63.714 E.08669
G1 X89.199 Y63.714 E.01314
G1 X89.199 Y60.949 E.08669
G1 X88.78 Y60.949 E.01314
G1 X88.78 Y63.714 E.08669
G1 X88.361 Y63.714 E.01314
G1 X88.361 Y60.949 E.08669
G1 X87.942 Y60.949 E.01314
G1 X87.942 Y63.714 E.08669
G1 X87.523 Y63.714 E.01314
G1 X87.523 Y60.949 E.08669
G1 X87.104 Y60.949 E.01314
G1 X87.104 Y63.714 E.08669
G1 X86.685 Y63.714 E.01314
G1 X86.685 Y60.949 E.08669
G1 X86.266 Y60.949 E.01314
G1 X86.266 Y63.714 E.08669
G1 X85.847 Y63.714 E.01314
G1 X85.847 Y60.949 E.08669
G1 X85.428 Y60.949 E.01314
G1 X85.428 Y63.714 E.08669
G1 X85.009 Y63.714 E.01314
G1 X85.009 Y60.949 E.08669
G1 X84.59 Y60.949 E.01314
G1 X84.59 Y63.714 E.08669
G1 X84.171 Y63.714 E.01314
G1 X84.171 Y60.949 E.08669
G1 X83.752 Y60.949 E.01314
G1 X83.752 Y63.714 E.08669
G1 X83.333 Y63.714 E.01314
G1 X83.333 Y60.949 E.08669
G1 X82.914 Y60.949 E.01314
G1 X82.914 Y63.714 E.08669
G1 X82.495 Y63.714 E.01314
G1 X82.495 Y60.78 E.09199
M204 P1000
G1 E-2.24 F2700
;WIPE_START
G1 F7200
G1 X82.495 Y63.475 E-.96
;WIPE_END
G1 Z.4 F720
G1 X70.704 Y63.904 F9000
G1 Z.2 F720
G1 E3.2 F1500
M204 P600
;TYPE:Perimeter
;WIDTH:0.419999
G1 F1200
G1 X70.704 Y64.938 E.03242
G1 X70.704 Y105.138 E1.26044
G1 X39.72 Y105.138 E.97148
G1 X39.72 Y63.904 E1.29286
G1 X41.355 Y63.904 E.05126
;WIDTH:0.447944
G1 X41.766 Y63.918 E.01385
;WIDTH:0.475888
G1 X42.177 Y63.932 E.01481
G1 X52.872 Y63.932 E.38504
G1 X53.219 Y63.918 E.0125
;WIDTH:0.447944
G1 X53.567 Y63.904 E.01173
;WIDTH:0.419999
G1 X56.345 Y63.904 E.0871
;WIDTH:0.447944
G1 X56.692 Y63.918 E.0117
;WIDTH:0.475888
G1 X57.039 Y63.932 E.0125
G1 X67.734 Y63.932 E.38504
G1 X68.218 Y63.918 E.01743
;WIDTH:0.447944
G1 X68.702 Y63.904 E.01631
;WIDTH:0.419999
G1 X70.644 Y63.904 E.06089
M204 P1000
G1 X71.081 Y63.527 F9000
M204 P600
G1 F1200
G1 X71.081 Y105.515 E1.3165
G1 X39.343 Y105.515 E.99512
G1 X39.343 Y63.527 E1.3165
M73 P2 R88
G1 X71.021 Y63.527 E.99324
M204 P1000
G1 X71.458 Y63.15 F9000
M204 P600
;TYPE:External perimeter
G1 F1200
G1 X71.458 Y105.892 E1.34014
G1 X38.966 Y105.892 E1.01876
G1 X38.966 Y63.15 E1.34014
G1 X71.398 Y63.15 E1.01688
M204 P1000
G1 X71.372 Y63.541 F9000
G1 E-2.24 F2700
;WIPE_START
G1 F7200
G1 X71.402 Y65.845 E-.96
;WIPE_END
G1 Z.4 F720
G1 X67.986 Y76.918 F9000
G1 Z.2 F720
G1 E3.2 F1500
M204 P600
;TYPE:Perimeter
G1 F1200
G1 X67.897 Y76.959 E.00307
G1 X67.734 Y76.974 E.00513
G1 X57.039 Y76.974 E.33533
G1 X56.528 Y76.823 E.01671
G1 X56.257 Y76.557 E.01191
G1 X56.129 Y76.277 E.00965
G1 X56.096 Y76.031 E.00778
G1 X56.096 Y65.336 E.33533
G1 X56.217 Y64.874 E.01497
G1 X56.531 Y64.542 E.01433
;WIDTH:0.452442
G1 X56.701 Y64.458 E.00646
;WIDTH:0.484884
G1 X56.871 Y64.375 E.00695
G1 X57.039 Y64.365 E.00618
;WIDTH:0.475888
G1 X67.734 Y64.365 E.38504
G1 X68.064 Y64.513 E.01302
;WIDTH:0.447944
G1 X68.393 Y64.662 E.01216
;WIDTH:0.419999
G1 X68.658 Y65.146 E.0173
G1 X68.677 Y65.336 E.00599
G1 X68.677 Y76.031 E.33533
G1 X68.663 Y76.194 E.00513
G1 X68.526 Y76.542 E.01173
G1 X68.337 Y76.756 E.00895
G1 X68.041 Y76.893 E.01023
M204 P1000
G1 X67.778 Y76.593 F9000
M204 P600
G1 F1200
G1 X57.039 Y76.597 E.33671
G1 X56.732 Y76.506 E.01004
G1 X56.541 Y76.3 E.00881
G1 X56.473 Y76.031 E.0087
G1 X56.473 Y65.336 E.33533
G1 X56.546 Y65.058 E.00901
G1 X56.734 Y64.859 E.00858
G1 X57.039 Y64.77 E.00996
G1 X67.734 Y64.77 E.33533
G1 X68.13 Y64.931 E.0134
G1 X68.288 Y65.222 E.01038
G1 X68.3 Y65.336 E.00359
G1 X68.3 Y76.031 E.33533
G1 X68.21 Y76.338 E.01003
G1 X68.096 Y76.466 E.00537
G1 X67.837 Y76.586 E.00895
M204 P1000
G1 X67.734 Y76.22 F9000
M204 P600
;TYPE:External perimeter
G1 F1200
G1 X57.039 Y76.22 E.33533
G1 X56.883 Y76.136 E.00556
G1 X56.851 Y76.031 E.00344
G1 X56.851 Y65.336 E.33533
G1 X56.875 Y65.243 E.00301
G1 X57.006 Y65.15 E.00504
G1 X57.039 Y65.147 E.00104
G1 X67.734 Y65.147 E.33533
G1 X67.866 Y65.201 E.00447
G1 X67.923 Y65.336 E.00459
G1 X67.923 Y76.031 E.33533
G1 X67.855 Y76.176 E.00502
G1 X67.791 Y76.199 E.00213
M204 P1000
G1 X67.631 Y76.606 F9000
G1 E-2.24 F2700
;WIPE_START
G1 F7200
G1 X65.096 Y76.204 E-.96
;WIPE_END
G1 Z.4 F720
G1 X53.143 Y76.91 F9000
G1 Z.2 F720
G1 E3.2 F1500
M204 P600
;TYPE:Perimeter
G1 F1200
G1 X53.054 Y76.956 E.00314
G1 X52.872 Y76.974 E.00573
G1 X42.177 Y76.974 E.33533
G1 X41.758 Y76.875 E.0135
G1 X41.528 Y76.715 E.00878
G1 X41.317 Y76.419 E.0114
G1 X41.234 Y76.031 E.01244
G1 X41.234 Y65.336 E.33533
G1 X41.294 Y65.004 E.01058
G1 X41.594 Y64.595 E.0159
;WIDTH:0.452442
G1 X41.801 Y64.485 E.00798
;WIDTH:0.484884
G1 X42.008 Y64.375 E.00861
G1 X42.177 Y64.365 E.00622
;WIDTH:0.475888
G1 X52.872 Y64.365 E.38504
G1 X53.126 Y64.453 E.00968
;WIDTH:0.447944
G1 X53.38 Y64.542 E.00906
;WIDTH:0.419999
G1 X53.694 Y64.874 E.01433
G1 X53.815 Y65.336 E.01497
G1 X53.815 Y76.031 E.33533
G1 X53.782 Y76.277 E.00778
G1 X53.702 Y76.479 E.00681
G1 X53.526 Y76.71 E.00911
G1 X53.196 Y76.882 E.01167
M204 P1000
G1 X52.919 Y76.592 F9000
M204 P600
G1 F1200
G1 X42.177 Y76.597 E.33681
G1 X41.925 Y76.538 E.00811
G1 X41.788 Y76.442 E.00525
G1 X41.661 Y76.264 E.00686
G1 X41.611 Y76.031 E.00747
G1 X41.611 Y65.336 E.33533
G1 X41.647 Y65.136 E.00637
G1 X41.827 Y64.891 E.00953
G1 X42.177 Y64.77 E.01161
G1 X52.872 Y64.77 E.33533
G1 X53.177 Y64.859 E.00996
G1 X53.365 Y65.058 E.00858
G1 X53.438 Y65.336 E.00901
G1 X53.438 Y76.031 E.33533
G1 X53.37 Y76.3 E.0087
G1 X53.265 Y76.438 E.00544
G1 X52.978 Y76.584 E.0101
M204 P1000
G1 X52.872 Y76.22 F9000
M204 P600
;TYPE:External perimeter
G1 F1200
G1 X42.177 Y76.22 E.33533
G1 X42.047 Y76.168 E.00439
G1 X41.988 Y76.031 E.00468
G1 X41.988 Y65.336 E.33533
G1 X42.06 Y65.187 E.00519
G1 X42.177 Y65.147 E.00388
G1 X52.872 Y65.147 E.33533
G1 X52.974 Y65.177 E.00333
G1 X53.061 Y65.336 E.00568
G1 X53.061 Y76.031 E.33533
G1 X53.003 Y76.167 E.00464
G1 X52.928 Y76.197 E.00253
M204 P1000
G1 X52.769 Y76.606 F9000
G1 E-2.24 F2700
;WIPE_START
G1 F7200
G1 X50.233 Y76.203 E-.96
;WIPE_END
G1 Z.4 F720
G1 X54.055 Y89.475 F9000
G1 Z.2 F720
G1 E3.2 F1500
M204 P600
;TYPE:Perimeter
G1 F1200
G1 X54.039 Y89.602 E.00401
G1 X53.958 Y89.804 E.00682
G1 X53.783 Y90.035 E.00909
G1 X53.31 Y90.281 E.01672
G1 X53.128 Y90.299 E.00573
G1 X42.433 Y90.299 E.33533
G1 X41.982 Y90.184 E.01459
G1 X41.755 Y90.011 E.00895
G1 X41.564 Y89.722 E.01086
